X:13
T:An tSeanbhean Bhocht (The Poor Old Woman)
M:C|
S:Darcie's TrTuneSbk Vo.2 (1998) p.3 + Part C
R:Hornpipe: AABBAACC
Z: Wosika
K:G
Bc| "G"dgga gedc| B2G2 GBdB| "Amin"ceab "D"afdB| c2 A2 A2 Bc|
"G"dggf g2BA| GDBD GBdB| "Amin"ceaf "D7"gedc| "G"B2 G2 G2::
 dc| "G"~(Bd)gd ~(Bd)gd| BdcA GBdB| "Amin"ceae ceae| c2 A2 A2 dc|
"G"~(Bd)gd ~(Bd)gd| BdcA GBdB| "Amin"ceaf "D7"gedc| "G"B2 G2 G2::
 ga| "G"(3bag (3agf gedc| B2 G2 G2 ab| "Amin"(3c'ba (3bag "D7"afdB| c2A2 A2 ga|
 "G"bgaf g2 BA| GDBD GBdB| "Amin"ceaf "D7"gedc| "G"B2 G2 G2:|
% Written by ABC2Win  2.2.124 BETA on 2/28/2011
